packages/icons/web/laptop_large.svg

<svg width="24" height="24" viewBox="0 0 24 24" fill="none" xmlns="http://www.w3.org/2000/svg">
<path d="M5.18181 13.5217H18.8182M5.18181 13.5217L3.27281 18.315C3.14205 18.6433 3.38392 19 3.73733 19H20.2627C20.6161 19 20.8579 18.6433 20.7272 18.315L18.8182 13.5217M5.18181 13.5217V5.5C5.18181 5.22386 5.40567 5 5.68181 5H18.3182C18.5943 5 18.8182 5.22386 18.8182 5.5V13.5217" stroke="#212933" stroke-width="2"/>
</svg>

<svg width="24" height="24" fill="none" xmlns="http://www.w3.org/2000/svg">
    <path d="M5.182 13.522h13.636m-13.636 0l-1.91 4.793a.5.5 0 00.465.685h16.526a.5.5 0 00.464-.685l-1.909-4.793m-13.636 0V5.5a.5.5 0 01.5-.5h12.636a.5.5 0 01.5.5v8.022" stroke="currentColor" stroke-width="2"/>
</svg>
